.local/share/icons/Gruvbox-Plus-Dark/mimetypes/scalable/application-x-ipynb+json.svg

<svg width="256" height="256" viewBox="0 0 256 256" fill="none" xmlns="http://www.w3.org/2000/svg">
<g opacity="0.4" filter="url(#filter0_f)">
<path d="M55.0839 15.5636H155.608L216.009 75.7129L216.011 224.609C216.011 233.52 208.749 240.737 199.838 240.737H55.0838C46.1734 240.737 39 233.564 39 224.654V31.6474C39 22.737 46.1734 15.5636 55.0838 15.5636H55.0839Z" fill="#282828"/>
</g>
<path d="M55.0839 15H155.608L216.009 75.1493L216.011 224.045C216.011 232.956 208.749 240.174 199.838 240.174H55.0838C46.1734 240.174 39 233 39 224.09V31.0838C39 22.1734 46.1734 15 55.0838 15H55.0839Z" fill="#ebdbb2"/>
<path fill-rule="evenodd" clip-rule="evenodd" d="M155.609 22.9787H55.0839C50.58 22.9787 46.9787 26.5799 46.9787 31.0838V224.09C46.9787 228.594 50.5799 232.195 55.0838 232.195H199.838C204.371 232.195 208.032 228.521 208.032 224.046V75.1493L155.609 22.9787ZM155.608 15H55.0839C46.1735 15 39 22.1734 39 31.0838V224.09C39 233 46.1734 240.174 55.0838 240.174H199.838C208.749 240.174 216.011 232.956 216.011 224.045L216.009 75.1493L155.608 15Z" fill="url(#paint0_linear)"/>
<path fill-rule="evenodd" clip-rule="evenodd" d="M171.14 76.3336C171.14 80.9361 167.486 84.6671 162.978 84.6671C158.471 84.6671 154.817 80.9361 154.817 76.3336C154.817 71.7311 158.471 68 162.978 68C167.486 68 171.14 71.7311 171.14 76.3336ZM99.3224 179.666C99.3224 184.269 95.6685 188 91.1612 188C86.6539 188 83 184.269 83 179.666C83 175.064 86.6539 171.333 91.1612 171.333C95.6685 171.333 99.3224 175.064 99.3224 179.666ZM89.5296 91.3336C93.1352 91.3336 96.0582 88.3489 96.0582 84.6671C96.0582 80.9854 93.1352 78.0007 89.5296 78.0007C85.924 78.0007 83.001 80.9854 83.001 84.6671C83.001 88.3489 85.924 91.3336 89.5296 91.3336ZM84.4176 116.687C89.4971 95.93 107.748 81.3586 128.702 81.3329C149.667 81.3554 167.929 95.9407 173 116.714C164.961 107.342 147.696 101.347 128.702 101.333C109.724 101.345 92.4686 107.328 84.4176 116.687ZM128.702 174.667C107.737 174.645 89.475 160.059 84.4039 139.286C92.4434 148.658 109.708 154.653 128.702 154.667C147.679 154.655 164.935 148.672 172.986 139.313C167.907 160.07 149.655 174.641 128.702 174.667Z" fill="url(#paint1_linear)"/>
<path opacity="0.25" d="M155.608 17V61.2306C155.608 70.141 162.867 77.1605 171.777 77.1605L216.009 77.1493V75.1493L155.608 17Z" fill="#282828"/>
<path d="M155.608 15V59.2306C155.608 68.141 162.867 75.1605 171.777 75.1605L216.009 75.1493L155.608 15Z" fill="url(#paint2_linear)"/>
<defs>
<filter id="filter0_f" x="23.8778" y="0.441412" width="207.255" height="255.418" filterUnits="userSpaceOnUse" color-interpolation-filters="sRGB">
<feFlood flood-opacity="0" result="BackgroundImageFix"/>
<feBlend mode="normal" in="SourceGraphic" in2="BackgroundImageFix" result="shape"/>
<feGaussianBlur stdDeviation="7.5611" result="effect1_foregroundBlur"/>
</filter>
<linearGradient id="paint0_linear" x1="39" y1="15" x2="39" y2="240.174" gradientUnits="userSpaceOnUse">
<stop offset="1e-07" stop-color="#fe8019"/>
<stop offset="1" stop-color="#d65d0e"/>
</linearGradient>
<linearGradient id="paint1_linear" x1="83" y1="68" x2="83" y2="188" gradientUnits="userSpaceOnUse">
<stop offset="1e-07" stop-color="#fe8019"/>
<stop offset="1" stop-color="#d65d0e"/>
</linearGradient>
<linearGradient id="paint2_linear" x1="155.608" y1="15" x2="155.608" y2="75.1605" gradientUnits="userSpaceOnUse">
<stop offset="1e-07" stop-color="#fe8019"/>
<stop offset="1" stop-color="#d65d0e"/>
</linearGradient>
</defs>
</svg>

<svg width="256" height="256" fill="none" version="1.1" viewBox="0 0 256 256" xmlns="http://www.w3.org/2000/svg">
  <path d="m55.08 15h100.5l60.4 60.15 2e-3 148.9c0 8.911-7.262 16.13-16.17 16.13h-144.8c-8.91 0-16.08-7.174-16.08-16.08v-193c0-8.91 7.173-16.08 16.08-16.08h1e-4z" fill="#ebdbb2"/>
  <path d="m155.6 22.98h-100.5c-4.504 0-8.105 3.601-8.105 8.105v193c0 4.504 3.601 8.105 8.105 8.105h144.8c4.533 0 8.194-3.674 8.194-8.149v-148.9l-52.42-52.17zm-1e-3 -7.979h-100.5c-8.91 0-16.08 7.173-16.08 16.08v193c0 8.91 7.173 16.08 16.08 16.08h144.8c8.911 0 16.17-7.218 16.17-16.13l-2e-3 -148.9-60.4-60.15z" clip-rule="evenodd" fill="url(#paint0_linear)" fill-rule="evenodd"/>
  <path d="m171.1 76.33c0 4.602-3.654 8.334-8.162 8.334-4.507 0-8.161-3.731-8.161-8.334s3.654-8.334 8.161-8.334c4.508 0 8.162 3.731 8.162 8.334zm-71.82 103.3c0 4.603-3.654 8.334-8.161 8.334s-8.161-3.731-8.161-8.334c0-4.602 3.654-8.333 8.161-8.333s8.161 3.731 8.161 8.333zm-9.793-88.33c3.606 0 6.529-2.985 6.529-6.666 0-3.682-2.923-6.666-6.529-6.666s-6.529 2.985-6.529 6.666c0 3.682 2.923 6.666 6.529 6.666zm-5.112 25.35c5.08-20.76 23.33-35.33 44.28-35.35 20.96 0.0225 39.23 14.61 44.3 35.38-8.039-9.372-25.3-15.37-44.3-15.38-18.98 0.012-36.23 5.995-44.28 15.35zm44.28 57.98c-20.96-0.022-39.23-14.61-44.3-35.38 8.04 9.372 25.3 15.37 44.3 15.38 18.98-0.012 36.23-5.995 44.28-15.35-5.079 20.76-23.33 35.33-44.28 35.35z" clip-rule="evenodd" fill="url(#paint1_linear)" fill-rule="evenodd"/>
  <path d="m155.6 17v44.23c0 8.91 7.259 15.93 16.17 15.93l44.23-0.0112v-2l-60.4-58.15z" fill="#282828" opacity=".25"/>
  <path d="m155.6 15v44.23c0 8.91 7.259 15.93 16.17 15.93l44.23-0.0112-60.4-60.15z" fill="url(#paint2_linear)"/>
  <defs>
    <linearGradient id="paint0_linear" x1="39" x2="39" y1="15" y2="240.2" gradientUnits="userSpaceOnUse">
      <stop stop-color="#fe8019" offset="1e-7"/>
      <stop stop-color="#d65d0e" offset="1"/>
    </linearGradient>
    <linearGradient id="paint1_linear" x1="83" x2="83" y1="68" y2="188" gradientUnits="userSpaceOnUse">
      <stop stop-color="#fe8019" offset="1e-7"/>
      <stop stop-color="#d65d0e" offset="1"/>
    </linearGradient>
    <linearGradient id="paint2_linear" x1="155.6" x2="155.6" y1="15" y2="75.16" gradientUnits="userSpaceOnUse">
      <stop stop-color="#fe8019" offset="1e-7"/>
      <stop stop-color="#d65d0e" offset="1"/>
    </linearGradient>
  </defs>
</svg>
